public/avatar/item1/24.svg

<svg xmlns:xlink="http://www.w3.org/1999/xlink" height="65.4" width="80.15" xmlns="http://www.w3.org/2000/svg"><g transform="translate(31.6 13.8)"><use height="17.5" transform="translate(-8.45 15.65)" width="16.8" xlink:href="#a"/><use height="4.35" transform="translate(-6.45 30)" width="4.25" xlink:href="#b"/></g><defs><g id="a"><path d="M6.2 28.05q-.3-2.25-1.1-4.5 2.3-2.65 1.65-3.95-.9-1.95-2.55-2.85l-2.7.05q.55-.35 1.35-.55 1.8-.45 4.4 2.25 1.55 1.55-1.2 5.05.7 2 .65 4l-.5.5M.3 31.2l-.6 1.2-1.2.2 2.15-6.1q.45 3.3-.9 4.4l.55.3m4.2-6.15q-1 2.1-.7 4.55l-.9.9q.1-7.55 1.6-5.45" fill="#422100" fill-rule="evenodd" transform="translate(8.45 -15.65)"/><path d="m1.5 16.8 2.7-.05q1.65.9 2.55 2.85.65 1.3-1.65 3.95.8 2.25 1.1 4.5l-1.15.1q-.1-2.6-.55-3.15v.05Q3 22.95 2.9 30.5l-1.25-.1-.5.85-.8-.05H.3l-.55-.3q1.35-1.1.9-4.4l-2.15 6.1-.55-.35q1.05-3 .7-6.35-1.85 1.45-1.8 5.15l-1 .05-.05-.05q-.6-.2-.85-.8l.1-1.5q-1 .25-1.75 0 .2-2.95 1.8-5.2-1.9-1.9-2-3.05-.15-1.2 1.4-3.15 1.5-2 4.7-.05l.25.25.8.35q.35-.65 1.25-1.1m-5.55 8.65q-.5 3.5-.15 5.6-.35-2.1.15-5.6M0 18.4l.1-.2-.3-.05.05.2q-1.45-1-3.7-1-1.5.85-1.95 2.7-.2 2.2 4.15 4l1.55-.95 1.6 1q4.35-1.8 4.15-4-.45-1.85-1.95-2.7-2.25 0-3.7 1" fill="#592d00" fill-rule="evenodd" transform="translate(8.45 -15.65)"/><path d="M-.8 17.3q-3.2-1.95-4.7.05-1.55 1.95-1.4 3.15.1 1.15 2 3.05-1.6 2.25-1.8 5.2l-.65-.35q.15-2.75 1.55-4.75-3.15-3.65-1.6-5.2 2.6-2.7 4.4-2.25 1.45.4 2.2 1.1" fill="#c60" fill-rule="evenodd" transform="translate(8.45 -15.65)"/><path d="m9.95 1.15 2.7-.05q1.65.9 2.55 2.85.65 1.3-1.65 3.95.8 2.25 1.1 4.5M8.8 15.55h-.05l-.55-.3m3.15-.4q.1-7.55 1.6-5.45m-6 7.55 2.15-6.1" fill="none" stroke="#422100" stroke-linecap="round" stroke-linejoin="round" stroke-width=".25"/><path d="M7.65 1.65q-3.2-1.95-4.7.05-1.55 1.95-1.4 3.15.1 1.15 2 3.05-1.6 2.25-1.8 5.2m2.5 2.3q-.35-2.1.15-5.6m-.1 5.65-.05-.05m4.85-4.55q.45 3.3-.9 4.4" fill="none" stroke="#c60" stroke-linecap="round" stroke-linejoin="round" stroke-width=".25"/><path d="m-5.5 28.7.1.35.35.2.35-.1.2-.35.75-4.1q-1.5 1.85-1.75 4m7.3 2.2.55-1.15q.4-1.05.15-4.55-.5 3.45-1.05 4.6-.55 1.1-.4 1.05h.35l.4.05M0 30.7q1.25-1.8.5-4.95-.3 2.9-1.3 4.4l-.1.35.2.3.4.1.3-.2" fill="#351b00" fill-rule="evenodd" transform="translate(8.45 -15.65)"/><path d="M3.55 17.9q1.2.75 1.6 2.25.05 1.8-3.6 3.4L-.1 22.6l-1.6.9q-3.65-1.6-3.6-3.4.4-1.5 1.55-2.25 2 0 3.65 1.05 1.7-1 3.65-1m3.1 6-.1-.2q2.95-3.8 1.05-5.55-2.85-2.95-4.9-2.35-2 .55-2.75 1.6-.75-1.1-2.85-1.65-2-.6-4.85 2.35-1.9 1.75 1.5 5.35-1.5 2.65-1.6 4.95l.05.25.15.15q.95.7 2.05.5l.05.95v.2q.5 1.5 2.5 1.1l.3-.15.1-.35q-.05-2.55 1-4.55-.05 3.2-.9 5.6v.25l.15.25q.95 1 2.3.25l.25-.2.4-.9.25.05.45-.05.2-.1.1-.15.3-.45q1.35.45 2.35-1.15l.1-.35q-.2-1.55.1-3.95l.15 2.6.1.25.2.2q1.25.5 2.25-.8l.1-.25q.05-1.85-.55-3.7M3.95 17l-.25-.1q-.85 0-3.75 1.25 2.35-1.8 3.6-1.85 1.3-.1 2.9 1.9 1.65 1.95.35 3.6l-1.05 1.4.45 4.15-.7.4q-.1-2.5-1.25-3.3-1.2 2.75-1 5.05-.6.8-1.4.45H1.5l-.3.2-.4.65-.2.05-.1-.1-.3-.4.1.2-.3-.4q-.1-.2-.3-.2l-.35.05-.25.3.05.35.35.5.15.15-.35.75-.9-.05q1.1-2.9.35-6.6h-.1q-2.25 1.55-2.3 5.2-.65 0-.9-.45V27.8l-.15.75-.15-.3-.25-.15-1.75.05q.15-2.15 1.1-3.85l.25-.95-1.3-1.6q-1.45-1.7.15-3.6 1.6-1.95 2.85-1.85 1.25.05 3.75 1.85-2.95-1.3-3.8-1.3l-.25.1q-1.7.9-2.2 3V20q-.35 2.5 4.45 4.5l.2.05.25-.05 1.3-1.2 1.3 1.25.25.05.25-.05q4.8-2 4.45-4.5L6.1 20q-.45-2.1-2.15-3" fill="#351b00" fill-rule="evenodd" transform="translate(8.45 -15.65)"/></g><g id="c" fill-rule="evenodd"><path d="m1.2-1.6.6-.05.1.2h.05L2.1.7l-.05.1-.15.45v.1l-.25.25-.2.1-.05.05q-1.85.95-3-.2l-.1-.15-.2-.2q-.3-.4-.2-.7v-1.65l.65-1h.05l.35.1Q.2-1.6 1.2-1.6" transform="translate(2.15 2.15)"/><path d="M-1.3-1.3q1.2.8 2.55.55L1.15.8q-1.4.55-2.55-.25l.1-1.85" fill="#360" transform="translate(2.15 2.15)"/><path d="m-1.6-1.5.1-.15.1-.05.15.05 2.5.4.2-.05.15.15L1.55.6l-.1.35-.2.2-.15.05.05-.4.1-1.55Q-.1-.5-1.3-1.3l-.3-.2" fill="#214200" transform="translate(2.15 2.15)"/><path d="m1.1 1.2-2.35-.1-.15-.15-.1-.15-.15-.45v-1.6l.05-.25.3.2-.1 1.85q1.15.8 2.55.25l-.05.4" fill="#509f00" transform="translate(2.15 2.15)"/><path d="m-.2-1.1-.8-.1-.35 2.1V1l.95.25.2-2.35" fill="#fff" fill-opacity=".592" transform="translate(2.15 2.15)"/></g><use height="4.35" width="4.25" xlink:href="#c" id="b"/></defs></svg>

<?xml version="1.0" encoding="UTF-8" standalone="no"?>
<svg xmlns:xlink="http://www.w3.org/1999/xlink" height="65.4px" width="80.15px" xmlns="http://www.w3.org/2000/svg">
  <g transform="matrix(1.0, 0.0, 0.0, 1.0, 31.6, 13.8)">
    <use height="17.5" transform="matrix(1.0, 0.0, 0.0, 1.0, -8.45, 15.65)" width="16.8" xlink:href="#shape0"/>
    <use height="4.35" transform="matrix(1.0, 0.0, 0.0, 1.0, -6.45, 30.0)" width="4.25" xlink:href="#sprite0"/>
  </g>
  <defs>
    <g id="shape0" transform="matrix(1.0, 0.0, 0.0, 1.0, 8.45, -15.65)">
      <path d="M6.2 28.05 Q5.9 25.8 5.1 23.55 7.4 20.9 6.75 19.6 5.85 17.65 4.2 16.75 L1.5 16.8 Q2.05 16.45 2.85 16.25 4.65 15.8 7.25 18.5 8.8 20.05 6.05 23.55 6.75 25.55 6.7 27.55 L6.2 28.05 M0.3 31.2 L-0.3 32.4 -1.5 32.6 0.65 26.5 Q1.1 29.8 -0.25 30.9 L0.3 31.2 M4.5 25.05 Q3.5 27.15 3.8 29.6 L2.9 30.5 Q3.0 22.95 4.5 25.05" fill="#422100" fill-rule="evenodd" stroke="none"/>
      <path d="M1.5 16.8 L4.2 16.75 Q5.85 17.65 6.75 19.6 7.4 20.9 5.1 23.55 5.9 25.8 6.2 28.05 L5.05 28.15 Q4.95 25.55 4.5 25.0 L4.5 25.05 Q3.0 22.95 2.9 30.5 L1.65 30.4 1.15 31.25 0.35 31.2 0.3 31.2 -0.25 30.9 Q1.1 29.8 0.65 26.5 L-1.5 32.6 -2.05 32.25 Q-1.0 29.25 -1.35 25.9 -3.2 27.35 -3.15 31.05 L-4.15 31.1 -4.2 31.05 Q-4.8 30.85 -5.05 30.25 L-4.95 28.75 Q-5.95 29.0 -6.7 28.75 -6.5 25.8 -4.9 23.55 -6.8 21.65 -6.9 20.5 -7.05 19.3 -5.5 17.35 -4.0 15.35 -0.8 17.3 L-0.55 17.55 0.25 17.9 Q0.6 17.25 1.5 16.8 M-4.05 25.45 Q-4.55 28.95 -4.2 31.05 -4.55 28.95 -4.05 25.45 M0.0 18.4 L0.1 18.2 -0.2 18.15 -0.15 18.35 Q-1.6 17.35 -3.85 17.35 -5.35 18.2 -5.8 20.05 -6.0 22.25 -1.65 24.05 L-0.1 23.1 1.5 24.1 Q5.85 22.3 5.65 20.1 5.2 18.25 3.7 17.4 1.45 17.4 0.0 18.4" fill="#592d00" fill-rule="evenodd" stroke="none"/>
      <path d="M-0.8 17.3 Q-4.0 15.35 -5.5 17.35 -7.05 19.3 -6.9 20.5 -6.8 21.65 -4.9 23.55 -6.5 25.8 -6.7 28.75 L-7.35 28.4 Q-7.2 25.65 -5.8 23.65 -8.95 20.0 -7.4 18.45 -4.8 15.75 -3.0 16.2 -1.55 16.6 -0.8 17.3" fill="#cc6600" fill-rule="evenodd" stroke="none"/>
      <path d="M1.5 16.8 L4.2 16.75 Q5.85 17.65 6.75 19.6 7.4 20.9 5.1 23.55 5.9 25.8 6.2 28.05 M0.35 31.2 L0.3 31.2 -0.25 30.9 M2.9 30.5 Q3.0 22.95 4.5 25.05 M-1.5 32.6 L0.65 26.5" fill="none" stroke="#422100" stroke-linecap="round" stroke-linejoin="round" stroke-width="0.25"/>
      <path d="M-0.8 17.3 Q-4.0 15.35 -5.5 17.35 -7.05 19.3 -6.9 20.5 -6.8 21.65 -4.9 23.55 -6.5 25.8 -6.7 28.75 M-4.2 31.05 Q-4.55 28.95 -4.05 25.45 M-4.15 31.1 L-4.2 31.05 M0.65 26.5 Q1.1 29.8 -0.25 30.9" fill="none" stroke="#cc6600" stroke-linecap="round" stroke-linejoin="round" stroke-width="0.25"/>
      <path d="M-5.5 28.7 L-5.4 29.05 -5.05 29.25 -4.7 29.15 -4.5 28.8 -3.75 24.7 Q-5.25 26.55 -5.5 28.7" fill="#351b00" fill-rule="evenodd" stroke="none"/>
      <path d="M1.8 30.9 L2.35 29.75 Q2.75 28.7 2.5 25.2 2.0 28.65 1.45 29.8 0.9 30.9 1.05 30.85 L1.4 30.85 1.8 30.9" fill="#351b00" fill-rule="evenodd" stroke="none"/>
      <path d="M0.0 30.7 Q1.25 28.9 0.5 25.75 0.2 28.65 -0.8 30.15 L-0.9 30.5 -0.7 30.8 -0.3 30.9 0.0 30.7" fill="#351b00" fill-rule="evenodd" stroke="none"/>
      <path d="M3.55 17.9 Q4.75 18.65 5.15 20.15 5.2 21.95 1.55 23.55 L-0.1 22.6 -1.7 23.5 Q-5.35 21.9 -5.3 20.1 -4.9 18.6 -3.75 17.85 -1.75 17.85 -0.1 18.9 1.6 17.9 3.55 17.9 M6.65 23.9 L6.55 23.7 Q9.5 19.9 7.6 18.15 4.75 15.2 2.7 15.8 0.7 16.35 -0.05 17.4 -0.8 16.3 -2.9 15.75 -4.9 15.15 -7.75 18.1 -9.65 19.85 -6.25 23.45 -7.75 26.1 -7.85 28.4 L-7.8 28.65 -7.65 28.8 Q-6.7 29.5 -5.6 29.3 L-5.55 30.25 -5.55 30.45 Q-5.05 31.95 -3.05 31.55 L-2.75 31.4 -2.65 31.05 Q-2.7 28.5 -1.65 26.5 -1.7 29.7 -2.55 32.1 L-2.55 32.35 -2.4 32.6 Q-1.45 33.6 -0.1 32.85 L0.15 32.65 0.55 31.75 0.8 31.8 1.25 31.75 1.45 31.65 1.55 31.5 1.85 31.05 Q3.2 31.5 4.2 29.9 L4.3 29.55 Q4.1 28.0 4.4 25.6 L4.55 28.2 4.65 28.45 4.85 28.65 Q6.1 29.15 7.1 27.85 L7.2 27.6 Q7.25 25.75 6.65 23.9 M3.95 17.0 L3.7 16.9 Q2.85 16.9 -0.05 18.15 2.3 16.35 3.55 16.3 4.85 16.2 6.45 18.2 8.1 20.15 6.8 21.8 L5.75 23.2 6.2 27.35 5.5 27.75 Q5.4 25.25 4.25 24.45 3.05 27.2 3.25 29.5 2.65 30.3 1.85 29.95 L1.5 29.95 1.2 30.15 0.8 30.8 0.6 30.85 0.5 30.75 0.2 30.35 0.3 30.55 0.0 30.15 Q-0.1 29.95 -0.3 29.95 L-0.65 30.0 -0.9 30.3 -0.85 30.65 -0.5 31.15 -0.35 31.3 -0.7 32.05 -1.6 32.0 Q-0.5 29.1 -1.25 25.4 L-1.35 25.4 Q-3.6 26.95 -3.65 30.6 -4.3 30.6 -4.55 30.15 L-4.55 27.8 -4.7 28.55 -4.85 28.25 -5.1 28.1 -6.85 28.15 Q-6.7 26.0 -5.75 24.3 L-5.5 23.35 -6.8 21.75 Q-8.25 20.05 -6.65 18.15 -5.05 16.2 -3.8 16.3 -2.55 16.35 -0.05 18.15 -3.0 16.85 -3.85 16.85 L-4.1 16.95 Q-5.8 17.85 -6.3 19.95 L-6.3 20.0 Q-6.65 22.5 -1.85 24.5 L-1.65 24.55 -1.4 24.5 -0.1 23.3 1.2 24.55 1.45 24.6 1.7 24.55 Q6.5 22.55 6.15 20.05 L6.1 20.0 Q5.65 17.9 3.95 17.0" fill="#351b00" fill-rule="evenodd" stroke="none"/>
    </g>
    <g id="sprite0" transform="matrix(1.0, 0.0, 0.0, 1.0, 2.15, 2.15)">
      <use height="4.35" transform="matrix(1.0, 0.0, 0.0, 1.0, -2.15, -2.15)" width="4.25" xlink:href="#shape1"/>
    </g>
    <g id="shape1" transform="matrix(1.0, 0.0, 0.0, 1.0, 2.15, 2.15)">
      <path d="M1.2 -1.6 L1.8 -1.65 1.9 -1.45 1.95 -1.45 2.1 0.7 2.05 0.8 1.9 1.25 1.9 1.35 1.65 1.6 1.45 1.7 1.4 1.75 Q-0.45 2.7 -1.6 1.55 L-1.7 1.4 -1.9 1.2 Q-2.2 0.8 -2.1 0.5 L-2.1 -1.15 -1.45 -2.15 -1.4 -2.15 -1.05 -2.05 Q0.2 -1.6 1.2 -1.6" fill="#000000" fill-rule="evenodd" stroke="none"/>
      <path d="M-1.3 -1.3 Q-0.1 -0.5 1.25 -0.75 L1.15 0.8 Q-0.25 1.35 -1.4 0.55 L-1.3 -1.3" fill="#336600" fill-rule="evenodd" stroke="none"/>
      <path d="M-1.6 -1.5 L-1.5 -1.65 -1.4 -1.7 -1.25 -1.65 1.25 -1.25 1.45 -1.3 1.6 -1.15 1.55 0.6 1.45 0.95 1.25 1.15 1.1 1.2 1.15 0.8 1.25 -0.75 Q-0.1 -0.5 -1.3 -1.3 L-1.6 -1.5" fill="#214200" fill-rule="evenodd" stroke="none"/>
      <path d="M1.1 1.2 L-1.25 1.1 -1.4 0.95 -1.5 0.8 -1.65 0.35 -1.65 -1.25 -1.6 -1.5 -1.3 -1.3 -1.4 0.55 Q-0.25 1.35 1.15 0.8 L1.1 1.2" fill="#509f00" fill-rule="evenodd" stroke="none"/>
      <path d="M-0.2 -1.1 L-1.0 -1.2 -1.35 0.9 -1.35 1.0 -0.4 1.25 -0.2 -1.1" fill="#ffffff" fill-opacity="0.5921569" fill-rule="evenodd" stroke="none"/>
    </g>
  </defs>
</svg>
